X: 3313
T: Miss Whitefoords Reel
%R: reel
B: Niel Gow & Sons "Complete Repository" v.3 p.31 #3
Z: 2021 John Chambers <jc:trillian.mit.edu>
M: C|
L: 1/8
K: Bb
% - - - - - - - - - -
V: 1 staves=2
d | TB2F>D FGBg | f(dTcB) cGGc | TB2F>D FGBg | f<d~c>d B/B/B B :| g | (fg/a/)b.g fdBd | e>cd>B ~c>BGg |
fg/a/bf gbfd | {d}c>Bcd B/B/B TB>g || fg/a/bf gbfd | e>cd>B Tc>BGc | (BGF).D F>GBg | f<d~c>d B/B/B B |]
% - - - - - - - - - -
V: 2 clef=bass middle=d
z | B2B2 d2e2 | d2B2 c2c2 | B2B2 d2e2 | f2F2 B2B :| z | b2b2 b2b2 | a2b2 f2e2 |
d2d2 e2d2 | f2f2 B2B2 || B2d2 e2d2 | A2B2 F2f2 | e2d2 B2B2 | F2F2 B2B |]


